X:1
T:The Lea Rig
L:1/8
M:4/4
I:linebreak $
K:A
V:1 treble 
V:1
 cB |"A" c2 E2"E" E2 F2 |"F#m" A3 B A2 c2 |"Bm" B3 c dcBA |"D" c2 F2"E7" F2 cB | %5
"A" c2 E2"E" E2 F2 |"F#m" A3 B A2 ag |"D" f3 e"E7" fgae |$"A" c2"D" A2"A" A2 || e2 | %10
"D" fe"E"fg"A" a2 c2 |"D" dcde f2 A2 |"Bm" B3 c dcBA |"D" c2 F2"E7" F2 cB |"A" c2 E2"E" E2 F2 | %15
"F#m" A3 B A2 ag |$"D" f3 e"E7" fgae |"A" c2"D" A2"A" A2 |] %18
